azure-patterns/svg-dot-net.svg

<svg xmlns="http://www.w3.org/2000/svg" viewBox="0 0 97 60">
                                
                            
    <rect width="97" height="60" fill="white"></rect>
    <path d="M11.8242 46.4297C11.043 46.4297 10.3789 46.1758 9.83203 45.668C9.28516 45.1471 9.01172 44.5286 9.01172 43.8125C9.01172 43.0833 9.28516 42.4583 9.83203 41.9375C10.3789 41.4167 11.043 41.1562 11.8242 41.1562C12.6185 41.1562 13.2891 41.4167 13.8359 41.9375C14.3958 42.4583 14.6758 43.0833 14.6758 43.8125C14.6758 44.5286 14.3958 45.1471 13.8359 45.668C13.2891 46.1758 12.6185 46.4297 11.8242 46.4297ZM43.8555 46H38.7773L25.3984 25.4141C25.0599 24.8932 24.7799 24.3529 24.5586 23.793H24.4414C24.5456 24.3919 24.5977 25.6745 24.5977 27.6406V46H20.1055V17.9922H25.5156L38.4453 38.0898C38.9922 38.9232 39.3438 39.4961 39.5 39.8086H39.5781C39.4479 39.0664 39.3828 37.8099 39.3828 36.0391V17.9922H43.8555V46ZM66.5312 46H50.8086V17.9922H65.9062V21.9375H55.457V29.8672H65.0859V33.793H55.457V42.0742H66.5312V46ZM89.6758 21.9375H81.6289V46H76.9805V21.9375H68.9531V17.9922H89.6758V21.9375Z" fill="#621EE5"></path>
</svg>

<svg xmlns="http://www.w3.org/2000/svg" viewBox="0 0 97 60"><path fill="#fff" d="M0 0h97v60H0z"/><path d="M11.824 46.43c-.781 0-1.445-.254-1.992-.762-.547-.52-.82-1.14-.82-1.855 0-.73.273-1.355.82-1.876.547-.52 1.211-.78 1.992-.78.794 0 1.465.26 2.012.78.56.521.84 1.146.84 1.876 0 .716-.28 1.334-.84 1.855-.547.508-1.218.762-2.012.762zM43.856 46h-5.079L25.398 25.414a9.13 9.13 0 0 1-.84-1.621h-.117c.105.599.157 1.881.157 3.848V46h-4.492V17.992h5.41l12.93 20.098c.546.833.898 1.406 1.054 1.719h.078c-.13-.743-.195-2-.195-3.77V17.992h4.472V46zm22.675 0H50.81V17.992h15.097v3.945H55.457v7.93h9.629v3.926h-9.629v8.281h11.074V46zm23.145-24.063h-8.047V46H76.98V21.937h-8.028v-3.945h20.723v3.945z" fill="#621EE5"/></svg>
